src/assets/img/providers-white/rtg_slots.svg

<svg width="72" height="26" viewBox="0 0 72 26" fill="none" xmlns="http://www.w3.org/2000/svg">
<g clip-path="url(#clip0_4134_9385)">
<path fill-rule="evenodd" clip-rule="evenodd" d="M62.0702 0.000976562H66.1028C67.2832 0.0599099 68.4506 0.21591 69.605 0.468976C70.7715 0.723776 71.4865 1.41451 71.75 2.54118V3.96598L71.6564 4.45998C71.6373 4.55011 71.5819 4.59518 71.49 4.59518L67.9618 4.59778C67.8023 4.59778 67.7391 4.51978 67.772 4.36378C67.9852 3.35498 66.966 3.27698 66.2744 3.25618C64.2655 3.20071 62.4099 3.20591 60.7078 3.27178C59.6652 3.31338 58.9866 3.80738 58.8306 4.82398C58.6382 6.07891 58.5281 7.30438 58.5004 8.50037C58.4813 9.34277 58.8965 9.78911 59.7458 9.83938C62.3319 9.98844 64.6329 9.97111 66.6488 9.78737C66.8268 9.77085 66.9945 9.69653 67.126 9.57581C67.2575 9.4551 67.3456 9.29467 67.3768 9.11917L67.4964 8.45098C67.5311 8.25684 67.4496 8.15977 67.252 8.15977L62.5928 8.16498C62.5808 8.16506 62.569 8.16256 62.5581 8.15766C62.5471 8.15275 62.5373 8.14553 62.5292 8.13648C62.5211 8.12742 62.515 8.11672 62.5111 8.10506C62.5073 8.0934 62.5059 8.08104 62.507 8.06878L62.7514 5.75478C62.754 5.72908 62.7658 5.70527 62.7845 5.68797C62.8033 5.67067 62.8276 5.66112 62.8528 5.66118H71.3522C71.4666 5.66118 71.5151 5.71838 71.4978 5.83278C71.3921 6.49318 71.2915 7.27404 71.1962 8.17538C70.9778 10.232 70.6866 11.974 68.4402 12.5226C67.6377 12.7184 66.7329 12.832 65.7258 12.8632C63.4846 12.929 61.2824 12.9316 59.1192 12.871C57.3902 12.8216 54.9514 12.5902 54.6654 10.5362C54.5805 9.92431 54.5666 9.26044 54.6238 8.54458C54.7382 7.08338 54.8881 5.68631 55.0736 4.35338C55.331 2.51258 56.0122 0.832976 58.0324 0.450776C59.3636 0.199443 60.7095 0.0495099 62.0702 0.000976562ZM35.792 7.95691C36.9395 8.02624 37.5097 8.61471 37.5028 9.72231C37.4959 10.5855 37.4075 11.5484 37.2376 12.6109C37.2255 12.6924 37.1778 12.7331 37.0946 12.7331L33.6496 12.7305C33.5213 12.7305 33.4676 12.6672 33.4884 12.5407C33.6063 11.8387 33.6539 11.1592 33.6314 10.5023C33.6233 10.2551 33.5196 10.0208 33.3421 9.84857C33.1645 9.67639 32.9271 9.57985 32.6798 9.57931L26.0576 9.56111C25.9761 9.56111 25.9311 9.60184 25.9224 9.68331L25.626 12.5407C25.6121 12.669 25.5411 12.7331 25.4128 12.7331L21.9704 12.7305C21.8525 12.7305 21.7997 12.6716 21.8118 12.5537L23.052 0.403906C23.0607 0.318973 23.1083 0.275639 23.195 0.273906C27.3307 0.266973 31.4327 0.273039 35.5008 0.292106C37.4439 0.300773 38.3833 1.23331 38.3192 3.08971C38.288 4.00317 38.184 4.93831 38.0072 5.89511C37.8217 6.89524 37.0816 7.56171 35.7868 7.89451C35.7851 7.89465 35.7835 7.89492 35.7818 7.89533C35.7795 7.89591 35.7772 7.89676 35.7751 7.89788C35.7714 7.89976 35.7682 7.90234 35.7655 7.90548C35.7628 7.90862 35.7608 7.91225 35.7596 7.91617C35.759 7.91791 35.7586 7.9197 35.7584 7.9215C35.7581 7.92375 35.758 7.92603 35.7582 7.92831C35.7585 7.9324 35.7597 7.93639 35.7616 7.94005C35.7634 7.9437 35.766 7.94695 35.7692 7.94961C35.7723 7.95226 35.7759 7.95427 35.7799 7.95553C35.7838 7.95678 35.7879 7.95725 35.792 7.95691ZM26.2682 6.25651C26.2561 6.37957 26.3115 6.44111 26.4346 6.44111C28.7781 6.45497 31.0444 6.44717 33.2336 6.41771C33.6548 6.41251 33.9495 6.23397 34.1176 5.88211C34.401 5.28411 34.791 3.43811 33.5352 3.42511C31.2281 3.40257 28.9367 3.39651 26.6608 3.40691C26.6322 3.40679 26.6045 3.4174 26.5834 3.43666C26.5622 3.45591 26.549 3.4824 26.5464 3.51091L26.2682 6.25651ZM39.2448 3.45633L44.58 3.45373C44.5953 3.45366 44.6104 3.45679 44.6243 3.46291C44.6383 3.46904 44.6508 3.47803 44.6611 3.4893C44.6714 3.50056 44.6792 3.51386 44.6841 3.52834C44.6889 3.54281 44.6906 3.55814 44.6892 3.57333L43.7662 12.6161C43.7647 12.6313 43.7665 12.6466 43.7713 12.6611C43.7762 12.6756 43.784 12.6889 43.7943 12.7002C43.8045 12.7114 43.8171 12.7204 43.8311 12.7265C43.845 12.7327 43.8601 12.7358 43.8754 12.7357L47.661 12.7305C47.6882 12.7306 47.7146 12.7206 47.7348 12.7023C47.755 12.684 47.7676 12.6588 47.7702 12.6317L48.6932 3.55253C48.6958 3.5254 48.7084 3.50023 48.7286 3.48195C48.7488 3.46367 48.7752 3.4536 48.8024 3.45373H54.1818C54.209 3.45385 54.2354 3.44378 54.2556 3.4255C54.2758 3.40722 54.2884 3.38205 54.291 3.35493L54.5926 0.393527C54.594 0.378337 54.5923 0.363011 54.5875 0.348538C54.5826 0.334064 54.5748 0.320764 54.5645 0.309496C54.5542 0.298227 54.5417 0.28924 54.5277 0.283113C54.5138 0.276987 54.4987 0.273858 54.4834 0.273927H39.5516C39.5243 0.273803 39.498 0.28387 39.4778 0.30215C39.4576 0.32043 39.445 0.345604 39.4424 0.372727L39.1356 3.33673C39.1341 3.35192 39.1359 3.36724 39.1407 3.38172C39.1456 3.39619 39.1534 3.40949 39.1637 3.42076C39.1739 3.43203 39.1865 3.44101 39.2005 3.44714C39.2144 3.45327 39.2295 3.4564 39.2448 3.45633ZM6.89558 15.0083C4.62578 13.7941 2.01018 14.6339 0.795985 16.8699C0.793041 16.8735 0.789057 16.8762 0.784555 16.8776C0.780052 16.879 0.775241 16.879 0.770748 16.8776C0.766255 16.8762 0.76229 16.8734 0.759371 16.8698C0.756452 16.8661 0.754714 16.8616 0.754385 16.8569C1.20505 11.9134 1.63145 7.04187 2.03358 2.24227C2.03805 2.1888 2.04225 2.13447 2.04649 2.07962L2.04649 2.07961C2.10879 1.27297 2.1799 0.35224 3.26078 0.354675C7.41212 0.359875 11.5427 0.359875 15.6524 0.354675C15.7754 0.354198 15.8972 0.379418 16.01 0.428729C16.1228 0.47804 16.2242 0.550364 16.3075 0.641096C16.3909 0.731828 16.4546 0.838983 16.4944 0.955741C16.5343 1.0725 16.5495 1.1963 16.539 1.31927L15.3768 14.6131C15.3681 14.7136 15.3317 14.724 15.2676 14.6443C13.6634 12.6579 10.91 12.2367 8.91318 13.9085C5.87898 16.4461 7.50398 21.3445 11.4144 21.6227C12.6537 21.7111 13.7631 21.3202 14.7424 20.4501C14.8308 20.3703 14.8733 20.3903 14.8698 20.5099L14.8653 20.6143C14.8306 21.4294 14.7767 22.6964 13.7206 22.6939C11.6267 22.6904 9.39505 22.6887 7.02558 22.6887C6.85052 22.6887 6.83925 22.6453 6.99178 22.5587C7.51352 22.2692 7.96678 21.8679 8.35158 21.3549C8.41572 21.2699 8.40618 21.1937 8.32298 21.1261C6.56278 19.6753 6.16238 17.2911 6.97098 15.2137C7.00738 15.1235 6.98225 15.0551 6.89558 15.0083ZM12.2126 2.71027C10.1014 3.88807 8.06298 5.34668 6.31578 6.96648C6.19965 7.07394 6.22132 7.12074 6.38078 7.10688C8.92098 6.88848 10.949 5.14127 12.3478 2.85067C12.4795 2.63401 12.4345 2.58721 12.2126 2.71027ZM6.11298 5.81468L10.4212 2.81947C10.4319 2.81164 10.4392 2.80001 10.4416 2.78696C10.4441 2.77391 10.4414 2.76042 10.4342 2.74927L10.4056 2.70507C10.3706 2.65447 10.2797 2.64352 10.1379 2.67286C9.99612 2.70219 9.80632 2.77123 9.57934 2.87603C9.35236 2.98082 9.09265 3.11932 8.81506 3.28361C8.53748 3.4479 8.24746 3.63475 7.96158 3.83347L7.91998 3.86207C7.63367 4.06104 7.35709 4.26805 7.10609 4.47123C6.8551 4.67441 6.63464 4.86977 6.45735 5.04609C6.28005 5.22242 6.14942 5.37626 6.07292 5.49878C5.99643 5.6213 5.97558 5.71009 6.01158 5.76008L6.04018 5.80168C6.04409 5.80734 6.04907 5.81217 6.05485 5.8159C6.06064 5.81962 6.0671 5.82216 6.07387 5.82337C6.08064 5.82458 6.08758 5.82444 6.0943 5.82294C6.10101 5.82145 6.10736 5.81864 6.11298 5.81468ZM2.44178 8.92168C5.09638 8.79688 7.76399 10.2295 9.12899 12.5539C9.19659 12.6717 9.29278 12.7038 9.41758 12.6501L10.1508 12.3355C10.2444 12.2956 10.2643 12.2332 10.2106 12.1483C8.41658 9.28308 5.84258 7.82968 2.48858 7.78808C2.46459 7.78772 2.44076 7.79219 2.41852 7.80122C2.39628 7.81024 2.37608 7.82363 2.35911 7.8406C2.34214 7.85757 2.32875 7.87778 2.31972 7.90001C2.3107 7.92225 2.30623 7.94608 2.30658 7.97008L2.30918 8.79428C2.30918 8.88268 2.35338 8.92514 2.44178 8.92168ZM3.64038 9.88628C4.35278 10.8197 5.02618 12.2445 5.05738 13.4795C5.06085 13.6389 5.14232 13.7195 5.30178 13.7213C5.66925 13.7265 6.03065 13.8088 6.38598 13.9683C6.55238 14.0445 6.62952 13.9917 6.61738 13.8097C6.54632 12.683 6.27592 11.5997 5.80618 10.5597C5.76458 10.4695 5.69958 10.4028 5.61118 10.3595C5.05825 10.0873 4.42818 9.88628 3.72098 9.75628C3.58058 9.73028 3.55372 9.77361 3.64038 9.88628ZM15.4548 22.6105C15.4496 22.6729 15.4331 22.7327 15.4054 22.7899C15.2234 23.1773 14.888 23.3957 14.472 23.3957C10.3935 23.4027 6.41632 23.4009 2.54059 23.3905C2.24419 23.3905 2.18266 23.511 2.35599 23.7519C2.40799 23.823 2.45912 23.8941 2.50939 23.9651C2.67579 24.1957 2.90026 24.3109 3.18279 24.3109H15.2962C15.5357 24.3111 15.7666 24.2212 15.9433 24.059C16.12 23.8968 16.2296 23.674 16.2504 23.4347L17.982 3.67733C17.9927 3.55929 17.9791 3.44042 17.9419 3.32814C17.9048 3.21586 17.845 3.11257 17.7662 3.02473L17.4698 2.68933C17.3051 2.50213 17.2124 2.53333 17.1916 2.78293L15.4548 22.6105ZM17.0538 26.001H4.40221C4.13354 25.8329 3.91601 25.5807 3.74961 25.2444C3.73812 25.221 3.73279 25.1951 3.73411 25.1691C3.73543 25.143 3.74335 25.1178 3.75714 25.0957C3.77093 25.0735 3.79013 25.0553 3.81292 25.0427C3.83571 25.03 3.86135 25.0234 3.88741 25.0234H15.9228C16.1741 25.0231 16.4163 24.9291 16.6015 24.7597C16.7868 24.5903 16.9017 24.3579 16.9238 24.1082L18.6502 4.41841C18.6727 4.14801 18.7707 4.11681 18.944 4.32481L19.217 4.64721C19.3802 4.84213 19.4596 5.09447 19.438 5.34921C18.8591 11.9255 18.2827 18.5061 17.709 25.091C17.6795 25.4255 17.4611 25.7289 17.0538 26.001ZM8.88459 16.1549C10.169 14.9147 11.7368 14.4077 13.5646 14.6677C13.7258 14.6902 13.744 14.6503 13.6192 14.5481C11.8018 13.0401 9.43059 13.8591 8.77019 16.0873C8.71992 16.2537 8.75806 16.2762 8.88459 16.1549ZM71.5004 14.4231H21.7572C21.6997 14.4231 21.6532 14.4697 21.6532 14.5271V15.1771C21.6532 15.2345 21.6997 15.2811 21.7572 15.2811H71.5004C71.5578 15.2811 71.6044 15.2345 71.6044 15.1771V14.5271C71.6044 14.4697 71.5578 14.4231 71.5004 14.4231ZM1.50841 17.9019C1.50147 17.94 1.51187 17.9461 1.53961 17.9201C2.76161 16.7778 4.14914 16.315 5.70221 16.5317C5.92061 16.5629 5.94227 16.5109 5.76721 16.3757C4.13701 15.1277 1.90361 15.9259 1.50841 17.9019ZM23.689 19.9325C23.6855 19.9793 23.6899 20.027 23.702 20.0755C23.7731 20.3477 23.9499 20.4863 24.2324 20.4915C25.4475 20.5158 26.6669 20.5323 27.8906 20.5409C28.4089 20.5444 28.9003 20.5964 29.3648 20.6969C30.6908 20.9803 30.5296 22.6469 30.2046 23.6141C29.9394 24.4011 29.3561 24.8465 28.4548 24.9505C27.2051 25.0924 25.9522 25.0863 24.6691 25.0801C24.3291 25.0785 23.9869 25.0768 23.6422 25.0779C22.077 25.0805 20.7952 24.8179 21.1956 22.8367C21.2147 22.7414 21.2736 22.6937 21.3724 22.6937L23.2522 22.6963C23.3527 22.6981 23.4099 22.7483 23.4238 22.8471C23.4273 22.8731 23.4238 22.8974 23.4134 22.9199C23.3857 22.9823 23.3822 23.0456 23.403 23.1097C23.4827 23.3507 23.6569 23.4781 23.9256 23.4919C25.236 23.5647 26.4025 23.5552 27.4252 23.4633C27.5157 23.4548 27.6039 23.4245 27.6826 23.3749C28.3378 22.9641 28.3551 22.5889 27.7346 22.2491C27.6578 22.2065 27.571 22.1842 27.4824 22.1841C26.0992 22.1737 24.7723 22.1668 23.5018 22.1633C22.4592 22.1607 21.44 21.8773 21.4374 20.5825C21.4374 19.1421 21.8508 17.9461 23.5226 17.7849C25.0271 17.6393 26.5551 17.6029 28.1064 17.6757C29.4714 17.7433 30.618 17.9149 30.4308 19.6699C30.41 19.8606 30.3043 19.9559 30.1136 19.9559H28.4626C28.2529 19.9559 28.1593 19.8511 28.1818 19.6413C28.2043 19.4316 27.9937 19.3111 27.55 19.2799C26.4771 19.2089 25.4067 19.2149 24.339 19.2981C23.9473 19.3293 23.7306 19.5408 23.689 19.9325ZM40.4616 23.0656C40.459 24.714 41.629 25.052 42.968 25.0884C44.5835 25.13 46.1547 25.1205 47.6818 25.0598C49.3059 24.9957 50.2376 24.1663 50.4768 22.5716C50.6016 21.7362 50.6926 20.9085 50.7498 20.0886C50.8538 18.5824 50.1821 17.7842 48.7348 17.694C46.9945 17.5866 45.2759 17.5866 43.579 17.694C42.1906 17.7824 41.1194 18.2478 40.823 19.7194C40.5855 20.8946 40.4651 22.01 40.4616 23.0656ZM43.7064 23.2866C43.1101 23.2554 42.8033 22.9686 42.786 22.426C42.7626 21.6772 42.8562 20.8062 43.1058 20.0964C43.2427 19.7047 43.5781 19.495 44.112 19.4672C45.2543 19.4048 46.4191 19.4057 47.6064 19.4698C48.2044 19.501 48.4956 19.8104 48.48 20.398C48.4575 21.23 48.3587 21.9381 48.1836 22.5222C47.9443 23.3142 47.0577 23.3223 46.3565 23.3287C46.2958 23.3293 46.2364 23.3298 46.179 23.3308C45.3713 23.3447 44.5471 23.33 43.7064 23.2866ZM63.7446 23.3463C63.9058 23.4469 64.0887 23.5015 64.2932 23.5101C65.6105 23.5656 66.7805 23.5439 67.8032 23.4451C67.8816 23.4378 67.9576 23.4138 68.0262 23.3748C68.0947 23.3358 68.1543 23.2827 68.201 23.2189C68.3379 23.0352 68.3899 22.8575 68.357 22.6859C68.2963 22.3653 68.1031 22.2023 67.7772 22.1971C66.5171 22.1763 65.2578 22.1677 63.9994 22.1711C63.0946 22.1737 61.7634 22.0801 61.662 20.9023C61.5346 19.4073 61.9298 17.9877 63.6094 17.7979C65.2734 17.6107 67.0865 17.5882 69.0486 17.7303C70.2498 17.8187 70.7854 18.5155 70.593 19.7375C70.5705 19.8831 70.4855 19.9559 70.3382 19.9559L68.6326 19.9533C68.4229 19.9533 68.3345 19.8502 68.3674 19.6439C68.4021 19.4307 68.1854 19.3085 67.7174 19.2773C66.6219 19.2028 65.523 19.2132 64.4206 19.3085C64.2885 19.3203 64.1653 19.3805 64.0748 19.4775C63.8235 19.7497 63.7983 20.0261 63.9994 20.3069C64.0444 20.3695 64.1038 20.4204 64.1726 20.4552C64.2414 20.4901 64.3175 20.5079 64.3946 20.5071C65.9425 20.4985 67.4626 20.5271 68.955 20.5929C70.5774 20.6631 70.7412 21.7577 70.5514 23.0291C70.3746 24.2113 69.7151 24.8561 68.5728 24.9635C66.4824 25.1559 64.5428 25.1646 62.754 24.9895C61.5927 24.8751 61.1333 24.1714 61.376 22.8783C61.3985 22.7587 61.4713 22.6981 61.5944 22.6963L63.4326 22.6911C63.5383 22.6911 63.5921 22.744 63.5938 22.8497L63.5964 23.0785C63.5964 23.1947 63.6458 23.2839 63.7446 23.3463ZM39.302 23.2321L34.401 23.2373C34.3897 23.2373 34.3786 23.235 34.3682 23.2305C34.3579 23.226 34.3487 23.2193 34.3411 23.211C34.3335 23.2026 34.3277 23.1928 34.3242 23.1821C34.3206 23.1714 34.3193 23.1601 34.3204 23.1489L34.9028 17.8033C34.9039 17.7923 34.9027 17.7812 34.8993 17.7706C34.8959 17.7601 34.8903 17.7504 34.883 17.7421C34.8757 17.7338 34.8668 17.7271 34.8568 17.7224C34.8467 17.7178 34.8359 17.7152 34.8248 17.7149L32.7474 17.7097C32.7273 17.7096 32.7079 17.717 32.693 17.7305C32.6781 17.7439 32.6688 17.7625 32.6668 17.7825L31.8842 24.9481C31.8831 24.9593 31.8844 24.9706 31.8879 24.9813C31.8915 24.992 31.8973 25.0018 31.9049 25.0102C31.9125 25.0185 31.9217 25.0252 31.932 25.0297C31.9424 25.0342 31.9535 25.0365 31.9648 25.0365H39.133C39.1531 25.0366 39.1725 25.0292 39.1874 25.0157C39.2023 25.0022 39.2117 24.9837 39.2136 24.9637L39.3826 23.3205C39.3837 23.3093 39.3824 23.2979 39.3789 23.2872C39.3753 23.2765 39.3695 23.2667 39.3619 23.2584C39.3543 23.25 39.3451 23.2434 39.3348 23.2389C39.3244 23.2343 39.3133 23.232 39.302 23.2321ZM57.3668 19.5947L56.7818 24.9663C56.7798 24.9863 56.7705 25.0048 56.7556 25.0183C56.7407 25.0318 56.7213 25.0392 56.7012 25.0391L54.6238 25.0365C54.6125 25.0365 54.6014 25.0342 54.591 25.0297C54.5807 25.0252 54.5714 25.0185 54.5639 25.0102C54.5563 25.0019 54.5505 24.992 54.5469 24.9813C54.5434 24.9706 54.5421 24.9593 54.5432 24.9481L55.123 19.6129C55.1245 19.6015 55.1235 19.5898 55.1201 19.5788C55.1167 19.5678 55.111 19.5577 55.1034 19.549C55.0958 19.5404 55.0864 19.5335 55.0758 19.5288C55.0653 19.5242 55.0539 19.5218 55.0424 19.5219L51.938 19.5375C51.9267 19.5375 51.9156 19.5352 51.9052 19.5307C51.8949 19.5262 51.8856 19.5195 51.8781 19.5112C51.8705 19.5029 51.8647 19.493 51.8611 19.4823C51.8576 19.4716 51.8563 19.4603 51.8574 19.4491L52.0238 17.7929C52.0257 17.7729 52.0351 17.7543 52.05 17.7409C52.0649 17.7274 52.0843 17.72 52.1044 17.7201H60.7676C60.7789 17.72 60.79 17.7223 60.8003 17.7269C60.8107 17.7314 60.8199 17.738 60.8275 17.7464C60.8351 17.7547 60.8409 17.7645 60.8444 17.7752C60.848 17.7859 60.8493 17.7973 60.8482 17.8085L60.661 19.4621C60.659 19.4821 60.6497 19.5006 60.6348 19.5141C60.6199 19.5276 60.6005 19.535 60.5804 19.5349L57.4474 19.5219C57.4273 19.5218 57.4079 19.5292 57.393 19.5427C57.3781 19.5561 57.3687 19.5747 57.3668 19.5947ZM0.25 21.3885V21.9397C0.55479 22.7667 1.2894 22.7358 1.98833 22.7064C2.14199 22.6999 2.29393 22.6935 2.4392 22.6963C2.61427 22.7015 2.6264 22.6591 2.4756 22.5689C1.58293 22.0385 0.974533 21.3244 0.6504 20.4265C0.475333 19.9429 0.378267 19.9577 0.3592 20.4707C0.3488 20.7411 0.3124 21.0471 0.25 21.3885Z" fill="white"/>
</g>
<defs>
<clipPath id="clip0_4134_9385">
<rect width="71.5" height="26" fill="white" transform="translate(0.25 0.000976562)"/>
</clipPath>
</defs>
</svg>

<svg xmlns="http://www.w3.org/2000/svg" width="72" height="26" fill="none"><g clip-path="url(#a)"><path fill="#fff" fill-rule="evenodd" d="M62.07.001h4.033c1.18.059 2.348.215 3.502.468 1.166.255 1.882.946 2.145 2.072v1.425l-.094.494c-.019.09-.074.135-.166.135l-3.528.003c-.16 0-.223-.078-.19-.234.213-1.009-.806-1.087-1.498-1.108a84.405 84.405 0 0 0-5.566.016c-1.043.041-1.721.535-1.877 1.552A28.629 28.629 0 0 0 58.5 8.5c-.02.843.396 1.29 1.245 1.34 2.586.148 4.887.131 6.903-.053a.817.817 0 0 0 .728-.668l.12-.668c.034-.194-.047-.291-.245-.291l-4.66.005a.083.083 0 0 1-.063-.029.09.09 0 0 1-.022-.067l.244-2.314a.105.105 0 0 1 .034-.067.1.1 0 0 1 .068-.027h8.5c.114 0 .162.057.145.172-.106.66-.207 1.441-.302 2.342-.218 2.057-.51 3.799-2.756 4.348-.802.195-1.707.309-2.714.34-2.241.066-4.444.069-6.607.008-1.729-.05-4.168-.28-4.454-2.335a9.184 9.184 0 0 1-.041-1.991c.114-1.462.264-2.859.45-4.192.257-1.84.938-3.52 2.958-3.902A26.901 26.901 0 0 1 62.07 0ZM35.792 7.957c1.148.07 1.718.658 1.71 1.765a19.433 19.433 0 0 1-.264 2.889c-.013.081-.06.122-.143.122l-3.445-.003c-.129 0-.182-.063-.162-.19.118-.701.166-1.38.143-2.038a.954.954 0 0 0-.951-.923l-6.622-.018c-.082 0-.127.04-.136.122l-.296 2.858c-.014.128-.085.192-.213.192l-3.443-.003c-.117 0-.17-.058-.158-.176l1.24-12.15c.009-.085.056-.128.143-.13 4.136-.007 8.238-.001 12.306.018 1.943.009 2.882.941 2.818 2.798a19.003 19.003 0 0 1-.312 2.805c-.185 1-.925 1.667-2.22 2a.032.032 0 0 0-.012.003.031.031 0 0 0-.006.052.03.03 0 0 0 .023.007Zm-9.524-1.7c-.012.123.043.184.167.184 2.343.014 4.61.006 6.799-.023.42-.005.715-.184.884-.536.283-.598.673-2.444-.583-2.457a479.425 479.425 0 0 0-6.874-.018.114.114 0 0 0-.115.104l-.278 2.746Zm12.977-2.8 5.335-.003a.109.109 0 0 1 .11.12l-.924 9.042a.109.109 0 0 0 .11.12l3.785-.006a.11.11 0 0 0 .11-.098l.922-9.08a.11.11 0 0 1 .11-.098h5.379a.11.11 0 0 0 .109-.1l.302-2.96a.11.11 0 0 0-.029-.085.11.11 0 0 0-.08-.035H39.551a.11.11 0 0 0-.11.099l-.306 2.964a.109.109 0 0 0 .109.12ZM6.895 15.007c-2.27-1.214-4.885-.374-6.099 1.862a.024.024 0 0 1-.011.008.023.023 0 0 1-.03-.021A2003.683 2003.683 0 0 0 2.045 2.08C2.11 1.273 2.18.352 3.261.355c4.151.005 8.282.005 12.391 0a.884.884 0 0 1 .842.6.89.89 0 0 1 .045.364l-1.162 13.294c-.009.1-.045.111-.11.031-1.604-1.986-4.357-2.407-6.354-.736-3.034 2.538-1.409 7.437 2.501 7.715 1.24.088 2.35-.303 3.328-1.173.089-.08.131-.06.128.06l-.005.104c-.034.815-.088 2.082-1.144 2.08-2.094-.004-4.326-.005-6.695-.005-.175 0-.187-.044-.034-.13.522-.29.975-.691 1.36-1.204.064-.085.054-.161-.029-.229-1.76-1.45-2.16-3.835-1.352-5.912.036-.09.011-.159-.075-.206ZM12.214 2.71C10.1 3.888 8.063 5.347 6.316 6.966c-.116.108-.095.155.065.14 2.54-.218 4.568-1.965 5.967-4.255.131-.217.086-.264-.135-.14Zm-6.1 3.105 4.308-2.996a.052.052 0 0 0 .013-.07l-.028-.044c-.035-.05-.126-.061-.268-.032-.142.03-.332.098-.559.203a8.689 8.689 0 0 0-.764.408c-.278.164-.568.35-.853.55l-.042.028c-.286.199-.563.406-.814.61a8.674 8.674 0 0 0-.649.574c-.177.176-.308.33-.384.453-.077.122-.097.211-.061.261l.028.042a.052.052 0 0 0 .073.013ZM2.442 8.922c2.654-.125 5.322 1.307 6.687 3.632.068.118.164.15.289.096l.733-.315c.093-.04.113-.102.06-.187-1.794-2.865-4.368-4.318-7.722-4.36a.18.18 0 0 0-.182.182l.002.824c0 .089.044.131.133.128Zm1.198.964c.713.934 1.386 2.359 1.417 3.594.004.159.085.24.245.241a2.72 2.72 0 0 1 1.084.247c.166.076.244.024.231-.158a9.248 9.248 0 0 0-.81-3.25.405.405 0 0 0-.196-.2 7.219 7.219 0 0 0-1.89-.604c-.14-.026-.167.018-.08.13ZM15.455 22.61a.505.505 0 0 1-.05.18c-.182.387-.517.606-.933.606-4.079.007-8.056.005-11.931-.006-.297 0-.358.121-.185.362l.153.213c.167.23.391.346.674.346h12.113a.956.956 0 0 0 .954-.876l1.732-19.758a.863.863 0 0 0-.216-.652l-.296-.336c-.165-.187-.258-.156-.278.094L15.455 22.61Zm1.599 3.391H4.402c-.268-.168-.486-.42-.652-.757a.153.153 0 0 1 .137-.22h12.036a1.007 1.007 0 0 0 1-.916l1.727-19.69c.023-.27.12-.301.294-.093l.273.322a.966.966 0 0 1 .221.702c-.579 6.576-1.155 13.157-1.729 19.742-.03.334-.248.638-.655.91Zm-8.17-9.846c1.285-1.24 2.853-1.747 4.68-1.487.162.022.18-.018.055-.12-1.817-1.508-4.188-.689-4.849 1.54-.05.166-.012.188.115.067ZM71.5 14.423H21.757a.104.104 0 0 0-.104.104v.65c0 .058.047.104.104.104H71.5a.104.104 0 0 0 .104-.104v-.65a.104.104 0 0 0-.104-.104ZM1.508 17.902c-.007.038.004.044.032.018 1.222-1.142 2.61-1.605 4.162-1.388.219.03.24-.021.065-.156-1.63-1.248-3.863-.45-4.259 1.526Zm22.181 2.03a.45.45 0 0 0 .013.144c.071.272.248.41.53.415 1.216.025 2.435.041 3.659.05.518.003 1.01.055 1.474.156 1.326.283 1.165 1.95.84 2.917-.266.787-.849 1.232-1.75 1.337-1.25.141-2.503.135-3.786.13-.34-.003-.682-.004-1.027-.003-1.565.003-2.847-.26-2.446-2.241.019-.096.078-.143.176-.143l1.88.002c.1.002.158.052.172.151a.13.13 0 0 1-.01.073.257.257 0 0 0-.011.19c.08.24.254.368.523.382 1.31.073 2.477.063 3.5-.029a.586.586 0 0 0 .257-.088c.655-.41.672-.786.052-1.126a.521.521 0 0 0-.253-.065c-1.383-.01-2.71-.017-3.98-.02-1.043-.003-2.062-.287-2.065-1.582 0-1.44.414-2.636 2.086-2.797a31.972 31.972 0 0 1 4.583-.11c1.365.068 2.512.24 2.325 1.995-.021.19-.127.286-.317.286h-1.651c-.21 0-.304-.105-.281-.315.022-.21-.188-.33-.632-.361a22.314 22.314 0 0 0-3.211.018c-.392.031-.608.243-.65.635Zm16.773 3.134c-.003 1.648 1.167 1.986 2.506 2.022 1.615.042 3.187.032 4.714-.028 1.624-.064 2.556-.894 2.795-2.488.125-.836.216-1.663.273-2.483.104-1.507-.568-2.305-2.015-2.395a41.29 41.29 0 0 0-5.156 0c-1.388.088-2.46.554-2.756 2.025a17.202 17.202 0 0 0-.361 3.347Zm3.244.22c-.596-.03-.903-.317-.92-.86-.023-.749.07-1.62.32-2.33.137-.391.472-.601 1.006-.629a32.205 32.205 0 0 1 3.494.003c.598.031.89.34.874.928-.022.832-.121 1.54-.296 2.124-.24.792-1.126.8-1.828.807-.06 0-.12 0-.177.002-.808.014-1.632-.001-2.473-.044Zm20.039.06c.16.1.344.155.548.164 1.317.056 2.487.034 3.51-.065a.555.555 0 0 0 .398-.226c.137-.184.189-.361.156-.533-.06-.32-.254-.484-.58-.489-1.26-.02-2.52-.03-3.778-.026-.904.003-2.236-.09-2.337-1.269-.127-1.495.268-2.914 1.947-3.104 1.664-.187 3.477-.21 5.44-.068 1.2.089 1.736.785 1.544 2.008-.023.145-.108.218-.255.218l-1.705-.003c-.21 0-.298-.103-.266-.31.035-.212-.182-.335-.65-.366a21.38 21.38 0 0 0-3.296.031.539.539 0 0 0-.346.17c-.252.272-.277.548-.076.829a.48.48 0 0 0 .396.2c1.547-.009 3.068.02 4.56.086 1.622.07 1.786 1.165 1.596 2.436-.176 1.182-.836 1.827-1.978 1.934-2.09.193-4.03.202-5.819.026-1.161-.114-1.62-.818-1.378-2.11.023-.12.095-.18.218-.183l1.839-.005c.105 0 .16.053.16.159l.003.228c0 .117.05.206.149.268Zm-24.443-.114-4.901.005a.082.082 0 0 1-.06-.026.08.08 0 0 1-.02-.062l.582-5.346a.08.08 0 0 0-.078-.088l-2.078-.005a.08.08 0 0 0-.08.072l-.783 7.166a.081.081 0 0 0 .048.082c.01.004.021.006.033.006h7.168a.08.08 0 0 0 .08-.072l.17-1.643a.082.082 0 0 0-.021-.063.08.08 0 0 0-.06-.026Zm18.065-3.637-.585 5.371a.08.08 0 0 1-.08.073l-2.078-.003a.082.082 0 0 1-.06-.026.081.081 0 0 1-.02-.062l.579-5.335a.08.08 0 0 0-.08-.091l-3.105.016a.082.082 0 0 1-.06-.027.081.081 0 0 1-.02-.062l.166-1.656a.08.08 0 0 1 .08-.073h8.664c.01 0 .022.002.032.007a.079.079 0 0 1 .044.048.08.08 0 0 1 .004.034l-.187 1.653a.08.08 0 0 1-.08.073l-3.134-.013a.08.08 0 0 0-.08.073ZM.25 21.389v.55c.305.828 1.04.797 1.738.767.154-.006.306-.012.451-.01.175.005.187-.037.037-.127-.893-.53-1.501-1.245-1.826-2.142-.175-.484-.272-.47-.29.044-.011.27-.048.576-.11.918Z" clip-rule="evenodd"/></g><defs><clipPath id="a"><path fill="#fff" d="M.25.001h71.5v26H.25z"/></clipPath></defs></svg>
